img/telephone-icon.svg

<svg xmlns="http://www.w3.org/2000/svg" width="57.335" height="57.335">
  <path fill="none" stroke="#FFF" stroke-width="2" d="M20.999 1C32.045 1 41 9.954 41 21c0 11.045-8.955 20-20.001 20C9.954 41 1 32.045 1 21 1 9.954 9.954 1 20.999 1z"/>
  <path fill="#FFF" fill-rule="evenodd" d="M31.434 26.192l-2.735-2.735a1.937 1.937 0 0 0-2.736 0L24.72 24.7a1.466 1.466 0 0 1-2.071 0l-5.389-5.393a1.465 1.465 0 0 1 0-2.072l1.243-1.242a1.932 1.932 0 0 0-.001-2.736l-2.733-2.726a1.936 1.936 0 0 0-2.733-.002l-.997.988a6.981 6.981 0 0 0 0 9.862l8.538 8.542a6.97 6.97 0 0 0 9.862 0l.995-.995a1.935 1.935 0 0 0 0-2.734zm-3.647-1.824l2.735 2.735a.645.645 0 0 1 0 .912l-.456.456-3.646-3.647.456-.456a.645.645 0 0 1 .911 0zm-12.93-12.924l2.735 2.725a.645.645 0 0 1 0 .912l-.456.456-3.644-3.645.453-.449a.646.646 0 0 1 .912.001zm6.631 17.566l-8.538-8.542a5.668 5.668 0 0 1-.355-7.649l3.634 3.634a2.75 2.75 0 0 0 .12 3.766l5.388 5.392a2.752 2.752 0 0 0 3.767.12l3.633 3.634a5.659 5.659 0 0 1-7.649-.355z"/>
</svg>

<svg
 xmlns="http://www.w3.org/2000/svg"
 xmlns:xlink="http://www.w3.org/1999/xlink"
 width="1.517cm" height="1.517cm">
<path fill-rule="evenodd"  stroke="rgb(255, 255, 255)" stroke-width="2px" stroke-linecap="butt" stroke-linejoin="miter" fill="none"
 d="M20.999,1.000 C32.045,1.000 41.000,9.954 41.000,21.000 C41.000,32.045 32.045,41.000 20.999,41.000 C9.954,41.000 1.000,32.045 1.000,21.000 C1.000,9.954 9.954,1.000 20.999,1.000 Z"/>
<path fill-rule="evenodd"  fill="rgb(255, 255, 255)"
 d="M31.434,26.192 L28.699,23.457 C27.945,22.703 26.718,22.703 25.963,23.457 L24.720,24.700 C24.149,25.271 23.219,25.271 22.649,24.700 L17.260,19.307 C16.688,18.735 16.688,17.808 17.260,17.235 C17.461,17.035 18.035,16.460 18.503,15.993 C19.254,15.242 19.265,14.019 18.502,13.257 L15.769,10.531 C15.015,9.777 13.788,9.777 13.036,10.529 C12.473,11.087 12.291,11.267 12.039,11.517 C9.320,14.236 9.320,18.660 12.039,21.379 L20.577,29.921 C23.302,32.646 27.714,32.646 30.439,29.921 L31.434,28.926 C32.188,28.172 32.188,26.946 31.434,26.192 ZM27.787,24.368 L30.522,27.103 C30.774,27.355 30.774,27.763 30.522,28.015 L30.066,28.471 L26.420,24.824 L26.876,24.368 C27.127,24.117 27.536,24.117 27.787,24.368 ZM14.857,11.444 L17.592,14.169 C17.844,14.421 17.844,14.829 17.592,15.081 L17.136,15.537 L13.492,11.892 L13.945,11.443 C14.196,11.192 14.605,11.192 14.857,11.444 ZM21.488,29.010 L12.950,20.468 C10.847,18.364 10.731,15.061 12.595,12.819 L16.229,16.453 C15.274,17.535 15.314,19.184 16.349,20.219 L21.737,25.611 L21.737,25.611 C22.771,26.645 24.420,26.687 25.504,25.731 L29.137,29.365 C26.903,31.225 23.606,31.127 21.488,29.010 Z"/>
</svg>
